**harm	**harte	**timestamp	**phrase	**leadinstrument	**kern
*M4/4	*M4/4	*	*	*	*
*E-:	*E-:	*	*	*	*E-:
1r;	N	0	.	r	1r;
=1	=1	=1	=1	=1	=1
*>A_intro	*>A_intro	*>A_intro	*>A_intro	*>A_intro	*>A_intro
1IV7	A-:maj7	0.372	newline	brass	1A- 1cc 1ee- 1gg
=2	=2	=2	=2	=2	=2
1IV7	A-:maj7	2.293	.	brass	1A- 1cc 1ee- 1gg
=3	=3	=3	=3	=3	=3
1-VIc	C-:maj/5	4.214	.	brass	1c- 1e- 1G-
=4	=4	=4	=4	=4	=4
1-VIc	C-:maj/5	6.136	.	brass	1c- 1e- 1G-
=5	=5	=5	=5	=5	=5
1IV7	A-:maj7	8.057	newline	brass	1A- 1cc 1ee- 1gg
=6	=6	=6	=6	=6	=6
1IV7	A-:maj7	9.969	.	brass	1A- 1cc 1ee- 1gg
=7	=7	=7	=7	=7	=7
1-VIc	C-:maj/5	11.88	.	brass	1c- 1e- 1G-
=8	=8	=8	=8	=8	=8
1-VIc	C-:maj/5	13.791	.	brass	1c- 1e- 1G-
=9	=9	=9	=9	=9	=9
*>B_bridge	*>B_bridge	*>B_bridge	*>B_bridge	*>B_bridge	*>B_bridge
1vic	C:sus2/5	15.703	newline	brass	1c 1e- 1G
=10	=10	=10	=10	=10	=10
1vic	C:sus2/5	17.593	.	brass	1c 1e- 1G
=11	=11	=11	=11	=11	=11
1V7	B-:sus4(b7)	19.483	newline	brass	1B- 1dd 1ff 1aa-
=12	=12	=12	=12	=12	=12
1V7	B-:sus4(b7)	21.368	.	brass	1B- 1dd 1ff 1aa-
=13	=13	=13	=13	=13	=13
1V7	B-:sus4(b7)	23.254	.	brass	1B- 1dd 1ff 1aa-
=14	=14	=14	=14	=14	=14
1V7	B-:sus4(b7)	25.139	.	brass	1B- 1dd 1ff 1aa-
=15	=15	=15	=15	=15	=15
1V7	B-:sus4(b7)	27.024	.	brass	1B- 1dd 1ff 1aa-
=16	=16	=16	=16	=16	=16
1V7	B-:sus4(b7)	28.909	.	brass	1B- 1dd 1ff 1aa-
=17	=17	=17	=17	=17	=17
*>C_transition	*>C_transition	*>C_transition	*>C_transition	*>C_transition	*>C_transition
1#IM7	E:maj7	30.794	newline	brass	1E 1g# 1b 1dd
=18	=18	=18	=18	=18	=18
1#IM7	E:maj7	32.708	.	brass	1E 1g# 1b 1dd
=19	=19	=19	=19	=19	=19
1IIIM7	G:maj7	34.622	.	brass	1G 1b 1dd 1ff
=20	=20	=20	=20	=20	=20
1IIIM7	G:maj7	36.536	.	brass	1G 1b 1dd 1ff
=21	=21	=21	=21	=21	=21
1IV	A-:sus4	38.45	newline	brass	1A- 1cc 1ee-
=22	=22	=22	=22	=22	=22
1IV	A-:sus4	40.359	.	brass	1A- 1cc 1ee-
=23	=23	=23	=23	=23	=23
*>D_verse	*>D_verse	*>D_verse	*>D_verse	*>D_verse	*>D_verse
*c:	*c:	*	*	*	*c:
1i	C:min	42.267	newline	voice	1C 1e- 1g
=24	=24	=24	=24	=24	=24
1-VI	A-:maj	44.151	.	voice	1A-- 1cc- 1ee--
=25	=25	=25	=25	=25	=25
1-III	E-:maj	46.035	.	voice	1E-- 1g- 1b--
=26	=26	=26	=26	=26	=26
2-VII	B-:maj	47.919	.	voice	2B- 2dd 2ff
2V7	G:7	48.862	.	voice	2G 2b 2dd 2ff
=27	=27	=27	=27	=27	=27
1i	C:min	49.804	newline	voice	1C 1e- 1g
=28	=28	=28	=28	=28	=28
1-VI	A-:maj	51.698	.	voice	1A-- 1cc- 1ee--
=29	=29	=29	=29	=29	=29
1-III	E-:maj	53.592	.	voice	1E-- 1g- 1b--
=30	=30	=30	=30	=30	=30
2-VII	B-:maj	55.486	.	voice	2B- 2dd 2ff
2V7	G:7	56.434	.	voice	2G 2b 2dd 2ff
=31	=31	=31	=31	=31	=31
*>E_prechorus	*>E_prechorus	*>E_prechorus	*>E_prechorus	*>E_prechorus	*>E_prechorus
2i	C:min	57.381	newline	voice	2C 2e- 2g
2-VIIb	B-:maj/3	58.331	.	voice	2b- 2D 2ff
=32	=32	=32	=32	=32	=32
2-III	E-:maj	59.282	.	voice	2E-- 2g- 2b--
2iv	F:min	60.233	.	voice	2F 2a- 2cc
=33	=33	=33	=33	=33	=33
1V7	G:sus4(b7)	61.184	.	voice	1G 1b 1dd 1ff
=34	=34	=34	=34	=34	=34
1V7	G:7	63.085	.	voice	1G 1b 1dd 1ff
=35	=35	=35	=35	=35	=35
*>F_chorus	*>F_chorus	*>F_chorus	*>F_chorus	*>F_chorus	*>F_chorus
*E-:	*E-:	*	*	*	*E-:
2I	E-:sus4	64.986	newline	voice	2E- 2g 2b-
2I	E-:maj	65.96	.	voice	2E- 2g 2b-
=36	=36	=36	=36	=36	=36
2-VII	D-:maj	66.934	.	voice	2D- 2f 2a-
2IV	A-:maj	67.908	.	voice	2A- 2cc 2ee-
=37	=37	=37	=37	=37	=37
2I	E-:sus4	68.882	newline	voice	2E- 2g 2b-
2I	E-:maj	69.841	.	voice	2E- 2g 2b-
=38	=38	=38	=38	=38	=38
2-VII	D-:maj	70.799	.	voice	2D- 2f 2a-
2IV	A-:maj	71.758	.	voice	2A- 2cc 2ee-
=39	=39	=39	=39	=39	=39
2I	E-:sus4	72.716	newline	voice	2E- 2g 2b-
2I	E-:maj	73.67	.	voice	2E- 2g 2b-
=40	=40	=40	=40	=40	=40
2-VII	D-:maj	74.624	.	voice	2D- 2f 2a-
2IV	A-:maj	75.577	.	voice	2A- 2cc 2ee-
=41	=41	=41	=41	=41	=41
2I	E-:sus4	76.531	newline	voice	2E- 2g 2b-
2I	E-:maj	77.483	.	voice	2E- 2g 2b-
=42	=42	=42	=42	=42	=42
2-VII	D-:maj	78.435	.	voice	2D- 2f 2a-
2IV	A-:maj	79.387	.	voice	2A- 2cc 2ee-
=43	=43	=43	=43	=43	=43
*>G_refrain	*>G_refrain	*>G_refrain	*>G_refrain	*>G_refrain	*>G_refrain
2I	E-:maj	80.339	newline	voice	2E- 2g 2b-
2vi	C:min	81.304	.	voice	2C 2e- 2g
=44	=44	=44	=44	=44	=44
2V	B-:sus4	82.269	.	voice	2B- 2dd 2ff
2V	B-:maj	83.234	.	voice	2B- 2dd 2ff
=45	=45	=45	=45	=45	=45
1IV	A-:sus4	84.199	.	voice	1A- 1cc 1ee-
=46	=46	=46	=46	=46	=46
1IV	A-:maj	86.129	.	voice	1A- 1cc 1ee-
=47	=47	=47	=47	=47	=47
*>D_verse	*>D_verse	*>D_verse	*>D_verse	*>D_verse	*>D_verse
*c:	*c:	*	*	*	*c:
1i	C:min	88.06	newline	voice	1C 1e- 1g
=48	=48	=48	=48	=48	=48
1-VI	A-:maj	90.008	.	voice	1A-- 1cc- 1ee--
=49	=49	=49	=49	=49	=49
1-III	E-:maj	91.957	.	voice	1E-- 1g- 1b--
=50	=50	=50	=50	=50	=50
2-VII	B-:maj	93.905	.	voice	2B- 2dd 2ff
2V7	G:7	94.879	.	voice	2G 2b 2dd 2ff
=51	=51	=51	=51	=51	=51
1i	C:min	95.853	newline	voice	1C 1e- 1g
=52	=52	=52	=52	=52	=52
1-VI	A-:maj	97.759	.	voice	1A-- 1cc- 1ee--
=53	=53	=53	=53	=53	=53
1-III	E-:maj	99.665	.	voice	1E-- 1g- 1b--
=54	=54	=54	=54	=54	=54
2-VII	B-:maj	101.57	.	voice	2B- 2dd 2ff
2V7	G:7	102.523	.	voice	2G 2b 2dd 2ff
=55	=55	=55	=55	=55	=55
*>E_prechorus	*>E_prechorus	*>E_prechorus	*>E_prechorus	*>E_prechorus	*>E_prechorus
2i	C:min	103.476	newline	voice	2C 2e- 2g
2-VIIb	B-:maj/3	104.442	.	voice	2b- 2D 2ff
=56	=56	=56	=56	=56	=56
2-III	E-:maj	105.408	.	voice	2E-- 2g- 2b--
2iv	F:min	106.374	.	voice	2F 2a- 2cc
=57	=57	=57	=57	=57	=57
1V7	G:sus4(b7)	107.34	.	voice	1G 1b 1dd 1ff
=58	=58	=58	=58	=58	=58
1V7	G:7	109.272	.	voice	1G 1b 1dd 1ff
=59	=59	=59	=59	=59	=59
*>F_chorus	*>F_chorus	*>F_chorus	*>F_chorus	*>F_chorus	*>F_chorus
*E-:	*E-:	*	*	*	*E-:
2I	E-:sus4	111.205	newline	voice	2E- 2g 2b-
2I	E-:maj	112.196	.	voice	2E- 2g 2b-
=60	=60	=60	=60	=60	=60
2-VII	D-:maj	113.188	.	voice	2D- 2f 2a-
2IV	A-:maj	114.18	.	voice	2A- 2cc 2ee-
=61	=61	=61	=61	=61	=61
2I	E-:sus4	115.172	newline	voice	2E- 2g 2b-
2I	E-:maj	116.123	.	voice	2E- 2g 2b-
=62	=62	=62	=62	=62	=62
2-VII	D-:maj	117.074	.	voice	2D- 2f 2a-
2IV	A-:maj	118.025	.	voice	2A- 2cc 2ee-
=63	=63	=63	=63	=63	=63
2I	E-:sus4	118.976	newline	voice	2E- 2g 2b-
2I	E-:maj	119.934	.	voice	2E- 2g 2b-
=64	=64	=64	=64	=64	=64
2-VII	D-:maj	120.891	.	voice	2D- 2f 2a-
2IV	A-:maj	121.848	.	voice	2A- 2cc 2ee-
=65	=65	=65	=65	=65	=65
2I	E-:sus4	122.806	newline	voice	2E- 2g 2b-
2I	E-:maj	123.753	.	voice	2E- 2g 2b-
=66	=66	=66	=66	=66	=66
2-VII	D-:maj	124.701	.	voice	2D- 2f 2a-
2IV	A-:maj	125.649	.	voice	2A- 2cc 2ee-
=67	=67	=67	=67	=67	=67
*>G_refrain	*>G_refrain	*>G_refrain	*>G_refrain	*>G_refrain	*>G_refrain
2I	E-:maj	126.596	newline	voice	2E- 2g 2b-
2vi	C:min	127.563	.	voice	2C 2e- 2g
=68	=68	=68	=68	=68	=68
2V	B-:sus4	128.53	.	voice	2B- 2dd 2ff
2V	B-:maj	129.497	.	voice	2B- 2dd 2ff
=69	=69	=69	=69	=69	=69
1IV	A-:maj	130.463	.	voice	1A- 1cc 1ee-
=70	=70	=70	=70	=70	=70
*e:	*e:	*	*	*	*e:
1V	B:maj	132.397	.	voice	1B 1dd# 1ff#
=71	=71	=71	=71	=71	=71
*>H_instrumental	*>H_instrumental	*>H_instrumental	*>H_instrumental	*>H_instrumental	*>H_instrumental
1i7	E:min7	134.33	newline	brass	1E 1g 1b 1dd#
=72	=72	=72	=72	=72	=72
1IV7	A:7	136.294	.	brass	1A 1cc# 1ee 1gg
=73	=73	=73	=73	=73	=73
1i7	E:min7	138.258	.	brass	1E 1g 1b 1dd#
=74	=74	=74	=74	=74	=74
1IV7	A:7	140.221	.	brass	1A 1cc# 1ee 1gg
=75	=75	=75	=75	=75	=75
1i7	E:min7	142.185	newline	brass	1E 1g 1b 1dd#
=76	=76	=76	=76	=76	=76
1IV7	A:7	144.107	.	brass	1A 1cc# 1ee 1gg
=77	=77	=77	=77	=77	=77
1i7	E:min7	146.029	.	brass	1E 1g 1b 1dd#
=78	=78	=78	=78	=78	=78
1IV7	A:7	147.951	.	brass	1A 1cc# 1ee 1gg
=79	=79	=79	=79	=79	=79
1i7	E:min7	149.873	newline	brass	1E 1g 1b 1dd#
=80	=80	=80	=80	=80	=80
1IV7	A:7	151.819	.	brass	1A 1cc# 1ee 1gg
=81	=81	=81	=81	=81	=81
1i7	E:min7	153.765	.	brass	1E 1g 1b 1dd#
=82	=82	=82	=82	=82	=82
1IV7	A:7	155.711	.	brass	1A 1cc# 1ee 1gg
=83	=83	=83	=83	=83	=83
1i7	E:min7	157.657	newline	brass	1E 1g 1b 1dd#
=84	=84	=84	=84	=84	=84
1IV7	A:7	159.563	.	brass	1A 1cc# 1ee 1gg
=85	=85	=85	=85	=85	=85
1i7	E:min7	161.469	.	brass	1E 1g 1b 1dd#
=86	=86	=86	=86	=86	=86
1IV7	A:7	163.375	.	brass	1A 1cc# 1ee 1gg
=87	=87	=87	=87	=87	=87
*>H_solo	*>H_solo	*>H_solo	*>H_solo	*>H_solo	*>H_solo
1i7	E:min7	165.281	newline	guitar	1E 1g 1b 1dd#
=88	=88	=88	=88	=88	=88
1IV7	A:7	167.181	.	guitar	1A 1cc# 1ee 1gg
=89	=89	=89	=89	=89	=89
1i7	E:min7	169.081	.	guitar	1E 1g 1b 1dd#
=90	=90	=90	=90	=90	=90
1IV7	A:7	170.981	.	guitar	1A 1cc# 1ee 1gg
=91	=91	=91	=91	=91	=91
1i7	E:min7	172.881	newline	guitar	1E 1g 1b 1dd#
=92	=92	=92	=92	=92	=92
1IV7	A:7	174.761	.	guitar	1A 1cc# 1ee 1gg
=93	=93	=93	=93	=93	=93
1i7	E:min7	176.641	.	guitar	1E 1g 1b 1dd#
=94	=94	=94	=94	=94	=94
1IV7	A:7	178.521	.	guitar	1A 1cc# 1ee 1gg
=95	=95	=95	=95	=95	=95
1i7	E:min7	180.401	newline	guitar	1E 1g 1b 1dd#
=96	=96	=96	=96	=96	=96
1IV7	A:7	182.277	.	guitar	1A 1cc# 1ee 1gg
=97	=97	=97	=97	=97	=97
1i7	E:min7	184.153	.	guitar	1E 1g 1b 1dd#
=98	=98	=98	=98	=98	=98
1IV7	A:7	186.029	.	guitar	1A 1cc# 1ee 1gg
=99	=99	=99	=99	=99	=99
1i7	E:min7	187.905	newline	brass guitar	1E 1g 1b 1dd#
=100	=100	=100	=100	=100	=100
1IV7	A:7	189.774	.	brass guitar	1A 1cc# 1ee 1gg
=101	=101	=101	=101	=101	=101
1i7	E:min7	191.642	.	brass guitar	1E 1g 1b 1dd#
=102	=102	=102	=102	=102	=102
1IV7	A:7	193.51	.	brass guitar	1A 1cc# 1ee 1gg
=103	=103	=103	=103	=103	=103
*>B_bridge	*>B_bridge	*>B_bridge	*>B_bridge	*>B_bridge	*>B_bridge
*E-:	*E-:	*	*	*	*E-:
1vic	C:sus2/5	195.379	newline	brass guitar	1c 1e- 1G
=104	=104	=104	=104	=104	=104
1vic	C:sus2/5	197.245	.	brass guitar	1c 1e- 1G
=105	=105	=105	=105	=105	=105
1V7	B-:sus4(b7)	199.111	newline	brass	1B- 1dd 1ff 1aa-
=106	=106	=106	=106	=106	=106
1V7	B-:sus4(b7)	200.96	.	brass	1B- 1dd 1ff 1aa-
=107	=107	=107	=107	=107	=107
*>F_chorus	*>F_chorus	*>F_chorus	*>F_chorus	*>F_chorus	*>F_chorus
2I	E-:sus4	202.809	newline	voice	2E- 2g 2b-
2I	E-:maj	203.729	.	voice	2E- 2g 2b-
=108	=108	=108	=108	=108	=108
2-VII	D-:maj	204.65	.	voice	2D- 2f 2a-
2IV	A-:maj	205.571	.	voice	2A- 2cc 2ee-
=109	=109	=109	=109	=109	=109
2I	E-:sus4	206.492	newline	voice	2E- 2g 2b-
2I	E-:maj	207.413	.	voice	2E- 2g 2b-
=110	=110	=110	=110	=110	=110
2-VII	D-:maj	208.334	.	voice	2D- 2f 2a-
2IV	A-:maj	209.256	.	voice	2A- 2cc 2ee-
=111	=111	=111	=111	=111	=111
2I	E-:sus4	210.177	newline	voice	2E- 2g 2b-
2I	E-:maj	211.103	.	voice	2E- 2g 2b-
=112	=112	=112	=112	=112	=112
2-VII	D-:maj	212.029	.	voice	2D- 2f 2a-
2IV	A-:maj	212.955	.	voice	2A- 2cc 2ee-
=113	=113	=113	=113	=113	=113
2I	E-:sus4	213.881	newline	voice	2E- 2g 2b-
2I	E-:maj	214.808	.	voice	2E- 2g 2b-
=114	=114	=114	=114	=114	=114
2-VII	D-:maj	215.734	.	voice	2D- 2f 2a-
2IV	A-:maj	216.661	.	voice	2A- 2cc 2ee-
=115	=115	=115	=115	=115	=115
*>G2_refrain	*>G2_refrain	*>G2_refrain	*>G2_refrain	*>G2_refrain	*>G2_refrain
2I	E-:maj	217.588	newline	voice	2E- 2g 2b-
2vi	C:min	218.549	.	voice	2C 2e- 2g
=116	=116	=116	=116	=116	=116
2V	B-:sus4	219.509	.	voice	2B- 2dd 2ff
2V	B-:maj	220.47	.	voice	2B- 2dd 2ff
=117	=117	=117	=117	=117	=117
1IV	A-:sus4	221.43	.	voice	1A- 1cc 1ee-
=118	=118	=118	=118	=118	=118
*M2/4	*M2/4	*M2/4	*M2/4	*M2/4	*M2/4
2IV	A-:sus4	223.352	.	voice	2A- 2cc 2ee-
=119	=119	=119	=119	=119	=119
*>J_interlude	*>J_interlude	*>J_interlude	*>J_interlude	*>J_interlude	*>J_interlude
*M4/4	*M4/4	*M4/4	*M4/4	*M4/4	*M4/4
1r	N	224.312	newline	drums	1r
=120	=120	=120	=120	=120	=120
1r	N	226.105	.	drums	1r
=121	=121	=121	=121	=121	=121
1r	N	227.898	.	drums	1r
=122	=122	=122	=122	=122	=122
1r	N	229.69	.	drums	1r
=123	=123	=123	=123	=123	=123
*>K_outro	*>K_outro	*>K_outro	*>K_outro	*>K_outro	*>K_outro
*M5/4	*M5/4	*M5/4	*M5/4	*M5/4	*M5/4
*C:	*C:	*	*	*	*C:
4.I	C:maj	231.483	newline	piano	4C 4e 4g
4.IV	F:maj	232.426	.	piano	4F 4a 4cc
2-VII	B-:maj	232.898	.	piano	2B- 2dd 2ff
=124	=124	=124	=124	=124	=124
*M4/4	*M4/4	*M4/4	*M4/4	*M4/4	*M4/4
4.-III	E-:sus4	233.842	.	piano	4E- 4g 4b-
4.-III	E-:maj	.	.	piano	4E- 4g 4b-
4V	G:maj	235.257	.	piano	4G 4b 4dd
=125	=125	=125	=125	=125	=125
*M5/4	*M5/4	*M5/4	*M5/4	*M5/4	*M5/4
4.I	C:maj	235.729	newline	brass	4C 4e 4g
4.IV	F:maj	236.672	.	brass	4F 4a 4cc
2-VII	B-:maj	237.144	.	brass	2B- 2dd 2ff
=126	=126	=126	=126	=126	=126
*M4/4	*M4/4	*M4/4	*M4/4	*M4/4	*M4/4
4.-III	E-:sus4	238.087	.	brass	4E- 4g 4b-
4.-III	E-:maj	.	.	brass	4E- 4g 4b-
4V	G:maj	239.501	.	brass	4G 4b 4dd
=127	=127	=127	=127	=127	=127
*M5/4	*M5/4	*M5/4	*M5/4	*M5/4	*M5/4
4.I	C:maj	239.973	newline	brass	4C 4e 4g
4.IV	F:maj	240.926	.	brass	4F 4a 4cc
2-VII	B-:maj	241.403	.	brass	2B- 2dd 2ff
=128	=128	=128	=128	=128	=128
*M4/4	*M4/4	*M4/4	*M4/4	*M4/4	*M4/4
4.-III	E-:sus4	242.356	.	brass	4E- 4g 4b-
4.-III	E-:maj	.	.	brass	4E- 4g 4b-
4V	G:maj	243.786	.	brass	4G 4b 4dd
=129	=129	=129	=129	=129	=129
*M5/4	*M5/4	*M5/4	*M5/4	*M5/4	*M5/4
4.I	C:maj	244.263	newline	brass	4C 4e 4g
4.IV	F:maj	245.18	.	brass	4F 4a 4cc
2-VII	B-:maj	245.638	.	brass	2B- 2dd 2ff
=130	=130	=130	=130	=130	=130
*M4/4	*M4/4	*M4/4	*M4/4	*M4/4	*M4/4
4.-III	E-:sus4	246.556	.	brass	4E- 4g 4b-
4.-III	E-:maj	.	.	brass	4E- 4g 4b-
4V	G:maj	247.932	.	brass	4G 4b 4dd
=131	=131	=131	=131	=131	=131
*M5/4	*M5/4	*M5/4	*M5/4	*M5/4	*M5/4
2.I	C:maj	248.39	newline	brass	2C 2e 2g
2I	C:maj	.	.	brass	2C 2e 2g
=132	=132	=132	=132	=132	=132
*M4/4	*M4/4	*M4/4	*M4/4	*M4/4	*M4/4
1I	C:maj	250.802	newline	brass	1C 1e 1g
1r;	N	263.969	.	r	1r;
1r;	N	265.779	.	r	1r;
*-	*-	*-	*-	*-	*-
!!!OTL: Make Me Smile
!!!COC: Chicago
!!!BillboardChartDate: 1970/06/06
!!!BillboardPeak: 9
!!!BillboardWeeksOnChart: 14
!!!SampleTargetRank: 9
!!!SampleActualRank: 9
!!!SampleID#: 1085
!!!RDF**harmony: **recip + pitch class of root + harmonic quality
!!!RDF**harte: Chris Harte's syntax, used by MIREX
!!!RDF**phrase: newline = linebreak in original McGill transcription
!!!RDF**timestamp: McGill audio timestamp in seconds
!!!RDF**leadinstrument: original McGill primary instrumentation annotation
!!!RDT: 2017/01/12/
!!!ENC: Nathaniel Condit-Schultz
!!!EST: Awating manual error checking and editing.
